X: 57
T: We're a forsaken for want o' Siller
%R: jig
B: Stewart "A Select Collection of Airs, Jigs, Marches and Reels", ca.1784, p.26,27 #57
F: http://imslp.org/wiki/A_Select_Collection_of_Airs,_Jigs,_Marches_and_Reels_%28Various%29
Z: 2017 John Chambers <jc:trillian.mit.edu>
M: 6/8
L: 1/8
K: Gmix
|:\
(B/c/d).f Te2d | (B/c/d).B (A/B/c).A | c2e- ecA |\
(B/c/d).f Te2d | (B/c/d).B (A/B/c).A | Gge dBG :|
|:\
(B/c/d).B c2g | B2g A2g | c2e- ecA |\
(B/c/d).B ccg | BBg AAg | Gge (dB).G :|

%%sep 1 1 500
%%sep 1 1 500

